third_party/noto/noto_2/emoji_u1f3e3.svg

<svg enable-background="new 0 0 128 128" viewBox="0 0 128 128" xmlns="http://www.w3.org/2000/svg" xmlns:xlink="http://www.w3.org/1999/xlink"><linearGradient id="g" x1="64" x2="64" y1="20" y2="117.01" gradientUnits="userSpaceOnUse"><stop stop-color="#D7CCC8" offset=".004633"/><stop stop-color="#D4C9C5" offset=".2605"/><stop stop-color="#CDBFBA" offset=".4835"/><stop stop-color="#BFAEA8" offset=".6943"/><stop stop-color="#AD978F" offset=".8963"/><stop stop-color="#A1887F" offset="1"/></linearGradient><rect x="8" y="20" width="112" height="96" fill="url(#g)"/><path d="M123,72H5c-0.8,0-1.28-0.89-0.83-1.55L8,66h112l3.83,4.45C124.27,71.11,123.8,72,123,72z" fill="#795548"/><radialGradient id="f" cx="63.25" cy="-2.75" r="36.5" gradientTransform="matrix(1.0287e-13 1 -1.3123 1.35e-13 59.641 -66)" gradientUnits="userSpaceOnUse"><stop stop-color="#795548" offset="0"/><stop stop-color="#5D4037" offset="1"/></radialGradient><path d="M124,20H4L18.83,5.17C19.58,4.42,20.6,4,21.66,4h84.69c1.06,0,2.08,0.42,2.83,1.17L124,20z" fill="url(#f)"/><path d="m122 22h-116c-1.1 0-2-0.9-2-2h120c0 1.1-0.9 2-2 2z" fill="#6D4C41"/><g opacity=".4"><rect x="8" y="67.5" width="112" height="1" fill="#B2836B"/></g><g opacity=".68"><g opacity=".4"><rect x="8" y="27" width="112" height="1" fill="#CCA88F"/></g><g opacity=".4"><rect x="8" y="43" width="112" height="1" fill="#CCA88F"/></g><g opacity=".4"><rect x="8" y="59" width="112" height="1" fill="#CCA88F"/></g><g opacity=".4"><rect x="8" y="76" width="112" height="1" fill="#CCA88F"/></g><g opacity=".4"><rect x="8" y="88" width="112" height="1" fill="#CCA88F"/></g><g opacity=".4"><rect x="8" y="100" width="112" height="1" fill="#CCA88F"/></g><g opacity=".4"><rect x="8" y="112" width="112" height="1" fill="#CCA88F"/></g></g><linearGradient id="e" x1="64" x2="64" y1="-2.9933" y2="25.211" gradientUnits="userSpaceOnUse"><stop stop-color="#795548" offset="0"/><stop stop-color="#5D4037" offset="1"/></linearGradient><path d="M124,20H4L18.83,5.17C19.58,4.42,20.6,4,21.66,4h84.69c1.06,0,2.08,0.42,2.83,1.17L124,20z" fill="url(#e)"/><path d="m122 22h-116c-1.1 0-2-0.9-2-2h120c0 1.1-0.9 2-2 2z" fill="#5D4037"/><path d="M123,72H5c-0.8,0-1.28-0.89-0.83-1.55L8,66h112l3.83,4.45C124.27,71.11,123.8,72,123,72z" fill="#6D4C41"/><defs><path id="d" d="m120 66v-46h4l-14.83-14.83c-0.75-0.75-1.77-1.17-2.83-1.17h-84.68c-1.06 0-2.08 0.42-2.83 1.17l-14.83 14.83h4v46l-3.83 4.45c-0.44 0.66 0.03 1.55 0.83 1.55h3v44h112v-44h3c0.8 0 1.28-0.89 0.83-1.55l-3.83-4.45z"/></defs><clipPath><use xlink:href="#d"/></clipPath><linearGradient id="c" x1="49.129" x2="14.135" y1="68" y2="68" gradientUnits="userSpaceOnUse"><stop stop-color="#A1887F" offset="0"/><stop stop-color="#A1887F" stop-opacity="0" offset="1"/></linearGradient><rect x="8" y="20" width="48" height="96" fill="url(#c)" opacity=".6"/><linearGradient id="b" x1="105.13" x2="70.135" y1="68" y2="68" gradientTransform="matrix(-1 0 0 1 184 0)" gradientUnits="userSpaceOnUse"><stop stop-color="#A1887F" offset="0"/><stop stop-color="#A1887F" stop-opacity="0" offset="1"/></linearGradient><polygon points="72 116 120 116 120 20 72 20" fill="url(#b)" opacity=".6"/><linearGradient id="a" x1="64" x2="64" y1="20.667" y2="121.33" gradientUnits="userSpaceOnUse"><stop stop-color="#D7CCC8" offset=".004633"/><stop stop-color="#D4C9C5" offset=".3551"/><stop stop-color="#CCBFBA" offset=".6606"/><stop stop-color="#BFAEA8" offset=".9483"/><stop stop-color="#BCAAA4" offset="1"/></linearGradient><path d="m64 20c-0.2 0-24 10-24 10v90h48v-92 2l-24-10z" fill="url(#a)"/><path d="m62.9 16.55-25.53 10.77c-0.84 0.42-1.37 1.27-1.37 2.21 0 1.36 1.11 2.47 2.47 2.47h1.53v-2l22.9-9.45c0.7-0.35 1.51-0.35 2.21 0l22.89 9.45v2h1.53c1.36 0 2.47-1.11 2.47-2.47 0-0.94-0.53-1.79-1.37-2.21l-25.53-10.77c-0.69-0.35-1.51-0.35-2.2 0z" fill="#4E342E"/><path d="M124,124H4v-4c0-2.21,1.79-4,4-4h112c2.21,0,4,1.79,4,4V124z" fill="#6D4C41"/><rect x="57" y="96" width="14" height="20" fill="#4E342E"/><g fill="#795548"><rect x="56" y="96" width="2" height="20"/><rect x="70" y="96" width="2" height="20"/></g><rect x="21.22" y="39" width="9.9" height="20" fill="#4E342E"/><path d="m32 38h-12v22h12v-22zm-1.94 20h-8v-8h8v8zm0-10h-8v-8h8v8z" fill="#795548"/><path d="m33 60h-14c-0.28 0-0.5-0.22-0.5-0.5v-1c0-0.28 0.22-0.5 0.5-0.5h14c0.28 0 0.5 0.22 0.5 0.5v1c0 0.28-0.22 0.5-0.5 0.5z" fill="#5D4037"/><path d="m33 40h-14c-0.28 0-0.5-0.22-0.5-0.5v-1c0-0.28 0.22-0.5 0.5-0.5h14c0.28 0 0.5 0.22 0.5 0.5v1c0 0.28-0.22 0.5-0.5 0.5z" fill="#5D4037"/><rect x="21.22" y="81" width="9.9" height="20" fill="#4E342E"/><path d="m32 80h-12v22h12v-22zm-1.94 20h-8v-8h8v8zm0-10h-8v-8h8v8z" fill="#795548"/><path d="m33 102h-14c-0.28 0-0.5-0.22-0.5-0.5v-1c0-0.28 0.22-0.5 0.5-0.5h14c0.28 0 0.5 0.22 0.5 0.5v1c0 0.28-0.22 0.5-0.5 0.5z" fill="#5D4037"/><path d="m33 82h-14c-0.28 0-0.5-0.22-0.5-0.5v-1c0-0.28 0.22-0.5 0.5-0.5h14c0.28 0 0.5 0.22 0.5 0.5v1c0 0.28-0.22 0.5-0.5 0.5z" fill="#5D4037"/><rect x="97.26" y="39" width="9.9" height="20" fill="#4E342E"/><path d="m108.04 38h-12v22h12v-22zm-1.94 20h-8v-8h8v8zm0-10h-8v-8h8v8z" fill="#795548"/><path d="m109.04 60h-14c-0.28 0-0.5-0.22-0.5-0.5v-1c0-0.28 0.22-0.5 0.5-0.5h14c0.28 0 0.5 0.22 0.5 0.5v1c0 0.28-0.22 0.5-0.5 0.5z" fill="#5D4037"/><path d="m109.04 40h-14c-0.28 0-0.5-0.22-0.5-0.5v-1c0-0.28 0.22-0.5 0.5-0.5h14c0.28 0 0.5 0.22 0.5 0.5v1c0 0.28-0.22 0.5-0.5 0.5z" fill="#5D4037"/><rect x="97.26" y="81" width="9.9" height="20" fill="#4E342E"/><path d="m108.04 80h-12v22h12v-22zm-1.94 20h-8v-8h8v8zm0-10h-8v-8h8v8z" fill="#795548"/><path d="m109.04 102h-14c-0.28 0-0.5-0.22-0.5-0.5v-1c0-0.28 0.22-0.5 0.5-0.5h14c0.28 0 0.5 0.22 0.5 0.5v1c0 0.28-0.22 0.5-0.5 0.5z" fill="#5D4037"/><path d="m109.04 82h-14c-0.28 0-0.5-0.22-0.5-0.5v-1c0-0.28 0.22-0.5 0.5-0.5h14c0.28 0 0.5 0.22 0.5 0.5v1c0 0.28-0.22 0.5-0.5 0.5z" fill="#5D4037"/><path d="m72.05 96h-16.1c-1.08 0-1.95-0.87-1.95-1.95v-0.1c0-1.08 0.87-1.95 1.95-1.95h16.1c1.08 0 1.95 0.87 1.95 1.95v0.1c0 1.08-0.87 1.95-1.95 1.95z" fill="#5D4037"/><rect x="46.58" y="33" width="34.83" height="6.86" fill="#FF1744"/><rect x="46.58" y="45.5" width="34.83" height="6.86" fill="#FF1744"/><rect x="60.24" y="49.5" width="7.52" height="17" fill="#FF1744"/><g opacity=".2"><path d="m106.34 7c0.27 0 0.52 0.1 0.71 0.29l11.71 11.71h-1.76v48.11l0.73 0.84 0.9 1.04h-1.63v50h3c0.55 0 1 0.45 1 1v1h-114v-1c0-0.55 0.45-1 1-1h3v-50h-1.62l0.9-1.04 0.72-0.84v-48.11h-1.76l11.71-11.71c0.19-0.19 0.44-0.29 0.71-0.29h84.68m0-3h-84.68c-1.06 0-2.08 0.42-2.83 1.17l-14.83 14.83c0 1.1 0.9 2 2 2h2v44l-3.83 4.45c-0.44 0.66 0.03 1.55 0.83 1.55h3v44c-2.21 0-4 1.79-4 4v4h120v-4c0-2.21-1.79-4-4-4v-44h3c0.8 0 1.28-0.89 0.83-1.55l-3.83-4.45v-44h2c1.1 0 2-0.9 2-2l-14.83-14.83c-0.75-0.75-1.77-1.17-2.83-1.17z" fill="#424242"/></g></svg>

<svg width="128" height="128" style="enable-background:new 0 0 128 128;" xmlns="http://www.w3.org/2000/svg" xmlns:xlink="http://www.w3.org/1999/xlink">
  <linearGradient id="SVGID_1_" gradientUnits="userSpaceOnUse" x1="64" x2="64" y1="20" y2="117.0143">
    <stop offset="4.632994e-03" style="stop-color:#D7CCC8"/>
    <stop offset="0.2605" style="stop-color:#D4C9C5"/>
    <stop offset="0.4835" style="stop-color:#CDBFBA"/>
    <stop offset="0.6943" style="stop-color:#BFAEA8"/>
    <stop offset="0.8963" style="stop-color:#AD978F"/>
    <stop offset="1" style="stop-color:#A1887F"/>
  </linearGradient>
  <rect height="96" style="fill:url(#SVGID_1_);" width="112" x="8" y="20"/>
  <path d="M123,72H5c-0.8,0-1.28-0.89-0.83-1.55L8,66h112l3.83,4.45C124.27,71.11,123.8,72,123,72z" style="fill:#795548;"/>
  <radialGradient id="SVGID_2_" cx="63.25" cy="-2.75" gradientTransform="matrix(4.499940e-11 1 -1.3123 5.905450e-11 59.6411 -66)" gradientUnits="userSpaceOnUse" r="36.5">
    <stop offset="0" style="stop-color:#795548"/>
    <stop offset="1" style="stop-color:#5D4037"/>
  </radialGradient>
  <path d="M124,20H4L18.83,5.17C19.58,4.42,20.6,4,21.66,4h84.69c1.06,0,2.08,0.42,2.83,1.17L124,20z" style="fill:url(#SVGID_2_);"/>
  <path d="M122,22H6c-1.1,0-2-0.9-2-2v0h120v0C124,21.1,123.1,22,122,22z" style="fill:#6D4C41;"/>
  <g style="opacity:0.4;">
    <rect height="1" style="fill:#B2836B;" width="112" x="8" y="67.5"/>
  </g>
  <g style="opacity:0.68;">
    <g style="opacity:0.4;">
      <rect height="1" style="fill:#CCA88F;" width="112" x="8" y="27"/>
    </g>
    <g style="opacity:0.4;">
      <rect height="1" style="fill:#CCA88F;" width="112" x="8" y="43"/>
    </g>
    <g style="opacity:0.4;">
      <rect height="1" style="fill:#CCA88F;" width="112" x="8" y="59"/>
    </g>
    <g style="opacity:0.4;">
      <rect height="1" style="fill:#CCA88F;" width="112" x="8" y="76"/>
    </g>
    <g style="opacity:0.4;">
      <rect height="1" style="fill:#CCA88F;" width="112" x="8" y="88"/>
    </g>
    <g style="opacity:0.4;">
      <rect height="1" style="fill:#CCA88F;" width="112" x="8" y="100"/>
    </g>
    <g style="opacity:0.4;">
      <rect height="1" style="fill:#CCA88F;" width="112" x="8" y="112"/>
    </g>
  </g>
  <linearGradient id="SVGID_3_" gradientUnits="userSpaceOnUse" x1="64" x2="64" y1="-2.9933" y2="25.211">
    <stop offset="0" style="stop-color:#795548"/>
    <stop offset="1" style="stop-color:#5D4037"/>
  </linearGradient>
  <path d="M124,20H4L18.83,5.17C19.58,4.42,20.6,4,21.66,4h84.69c1.06,0,2.08,0.42,2.83,1.17L124,20z" style="fill:url(#SVGID_3_);"/>
  <path d="M122,22H6c-1.1,0-2-0.9-2-2v0h120v0C124,21.1,123.1,22,122,22z" style="fill:#5D4037;"/>
  <path d="M123,72H5c-0.8,0-1.28-0.89-0.83-1.55L8,66h112l3.83,4.45C124.27,71.11,123.8,72,123,72z" style="fill:#6D4C41;"/>
  <g>
    <defs>
      <path id="SVGID_4_" d="M120,66v-6v-8v-8v-8v-8v-8h4L109.17,5.17C108.42,4.42,107.4,4,106.34,4H21.66c-1.06,0-2.08,0.42-2.83,1.17 L4,20h4v8v8v8v8v8v6l-3.83,4.45C3.73,71.11,4.2,72,5,72h3v4v8v8v8v8v8h112v-8v-8v-8v-8v-8v-4h3c0.8,0,1.28-0.89,0.83-1.55L120,66z "/>
    </defs>
    <clipPath id="SVGID_5_">
      <use style="overflow:visible;" xlink:href="#SVGID_4_"/>
    </clipPath>
  </g>
  <linearGradient id="SVGID_6_" gradientUnits="userSpaceOnUse" x1="49.1287" x2="14.1349" y1="68" y2="68">
    <stop offset="0" style="stop-color:#A1887F"/>
    <stop offset="1" style="stop-color:#A1887F;stop-opacity:0"/>
  </linearGradient>
  <rect height="96" style="opacity:0.6;fill:url(#SVGID_6_);" width="48" x="8" y="20"/>
  <linearGradient id="SVGID_7_" gradientTransform="matrix(-1 0 0 1 184 0)" gradientUnits="userSpaceOnUse" x1="105.1287" x2="70.1349" y1="68" y2="68">
    <stop offset="0" style="stop-color:#A1887F"/>
    <stop offset="1" style="stop-color:#A1887F;stop-opacity:0"/>
  </linearGradient>
  <polygon points="72,116 120,116 120,20 72,20 " style="opacity:0.6;fill:url(#SVGID_7_);"/>
  <linearGradient id="SVGID_8_" gradientUnits="userSpaceOnUse" x1="64" x2="64" y1="20.6667" y2="121.3333">
    <stop offset="4.632994e-03" style="stop-color:#D7CCC8"/>
    <stop offset="0.3551" style="stop-color:#D4C9C5"/>
    <stop offset="0.6606" style="stop-color:#CCBFBA"/>
    <stop offset="0.9483" style="stop-color:#BFAEA8"/>
    <stop offset="1" style="stop-color:#BCAAA4"/>
  </linearGradient>
  <path d="M64,20c-0.2,0-24,10-24,10v2v88h48V28v2L64,20z" style="fill:url(#SVGID_8_);"/>
  <path d="M62.9,16.55L37.37,27.32C36.53,27.74,36,28.59,36,29.53v0c0,1.36,1.11,2.47,2.47,2.47H40v-2 l22.9-9.45c0.7-0.35,1.51-0.35,2.21,0L88,30v2h1.53c1.36,0,2.47-1.11,2.47-2.47v0c0-0.94-0.53-1.79-1.37-2.21L65.1,16.55 C64.41,16.2,63.59,16.2,62.9,16.55z" style="fill:#4E342E;"/>
  <path d="M124,124H4v-4c0-2.21,1.79-4,4-4h112c2.21,0,4,1.79,4,4V124z" style="fill:#6D4C41;"/>
  <rect height="20" style="fill:#4E342E;" width="14" x="57" y="96"/>
  <g>
    <rect height="20" style="fill:#795548;" width="2" x="56" y="96"/>
    <rect height="20" style="fill:#795548;" width="2" x="70" y="96"/>
  </g>
  <g>
    <g>
      <rect height="20" style="fill:#4E342E;" width="9.9" x="21.22" y="39"/>
      <path d="M32,38H20v22h12V38z M30.06,58h-8v-8h8V58z M30.06,48h-8v-8h8V48z" style="fill:#795548;"/>
    </g>
    <path d="M33,60H19c-0.28,0-0.5-0.22-0.5-0.5v-1c0-0.28,0.22-0.5,0.5-0.5h14c0.28,0,0.5,0.22,0.5,0.5v1 C33.5,59.78,33.28,60,33,60z" style="fill:#5D4037;"/>
    <path d="M33,40H19c-0.28,0-0.5-0.22-0.5-0.5v-1c0-0.28,0.22-0.5,0.5-0.5h14c0.28,0,0.5,0.22,0.5,0.5v1 C33.5,39.78,33.28,40,33,40z" style="fill:#5D4037;"/>
  </g>
  <g>
    <g>
      <rect height="20" style="fill:#4E342E;" width="9.9" x="21.22" y="81"/>
      <path d="M32,80H20v22h12V80z M30.06,100h-8v-8h8V100z M30.06,90h-8v-8h8V90z" style="fill:#795548;"/>
    </g>
    <path d="M33,102H19c-0.28,0-0.5-0.22-0.5-0.5v-1c0-0.28,0.22-0.5,0.5-0.5h14c0.28,0,0.5,0.22,0.5,0.5v1 C33.5,101.78,33.28,102,33,102z" style="fill:#5D4037;"/>
    <path d="M33,82H19c-0.28,0-0.5-0.22-0.5-0.5v-1c0-0.28,0.22-0.5,0.5-0.5h14c0.28,0,0.5,0.22,0.5,0.5v1 C33.5,81.78,33.28,82,33,82z" style="fill:#5D4037;"/>
  </g>
  <g>
    <g>
      <rect height="20" style="fill:#4E342E;" width="9.9" x="97.26" y="39"/>
      <path d="M108.04,38h-12v22h12V38z M106.1,58h-8v-8h8V58z M106.1,48h-8v-8h8V48z" style="fill:#795548;"/>
    </g>
    <path d="M109.04,60h-14c-0.28,0-0.5-0.22-0.5-0.5v-1c0-0.28,0.22-0.5,0.5-0.5h14c0.28,0,0.5,0.22,0.5,0.5v1 C109.54,59.78,109.32,60,109.04,60z" style="fill:#5D4037;"/>
    <path d="M109.04,40h-14c-0.28,0-0.5-0.22-0.5-0.5v-1c0-0.28,0.22-0.5,0.5-0.5h14c0.28,0,0.5,0.22,0.5,0.5v1 C109.54,39.78,109.32,40,109.04,40z" style="fill:#5D4037;"/>
  </g>
  <g>
    <g>
      <rect height="20" style="fill:#4E342E;" width="9.9" x="97.26" y="81"/>
      <path d="M108.04,80h-12v22h12V80z M106.1,100h-8v-8h8V100z M106.1,90h-8v-8h8V90z" style="fill:#795548;"/>
    </g>
    <path d="M109.04,102h-14c-0.28,0-0.5-0.22-0.5-0.5v-1c0-0.28,0.22-0.5,0.5-0.5h14c0.28,0,0.5,0.22,0.5,0.5v1 C109.54,101.78,109.32,102,109.04,102z" style="fill:#5D4037;"/>
    <path d="M109.04,82h-14c-0.28,0-0.5-0.22-0.5-0.5v-1c0-0.28,0.22-0.5,0.5-0.5h14c0.28,0,0.5,0.22,0.5,0.5v1 C109.54,81.78,109.32,82,109.04,82z" style="fill:#5D4037;"/>
  </g>
  <path d="M72.05,96h-16.1C54.87,96,54,95.13,54,94.05v-0.1c0-1.08,0.87-1.95,1.95-1.95h16.1 c1.08,0,1.95,0.87,1.95,1.95v0.1C74,95.13,73.13,96,72.05,96z" style="fill:#5D4037;"/>
  <rect height="6.86" style="fill:#FF1744;" width="34.83" x="46.58" y="33"/>
  <rect height="6.86" style="fill:#FF1744;" width="34.83" x="46.58" y="45.5"/>
  <rect height="17" style="fill:#FF1744;" width="7.52" x="60.24" y="49.5"/>
  <g style="opacity:0.2;">
    <path d="M106.34,7c0.27,0,0.52,0.1,0.71,0.29L118.76,19H117v3v6v8v8v8v8v6v1.11l0.73,0.84l0.9,1.04H117v3v4 v8v8v8v8v8v3h3c0.55,0,1,0.45,1,1v1H7v-1c0-0.55,0.45-1,1-1h3v-3v-8v-8v-8v-8v-8v-4v-3H9.38l0.9-1.04L11,67.11V66v-6v-8v-8v-8v-8 v-6v-3H9.24L20.95,7.29C21.14,7.1,21.39,7,21.66,7H106.34 M106.34,4H21.66c-1.06,0-2.08,0.42-2.83,1.17L4,20c0,1.1,0.9,2,2,2h2v6v8 v8v8v8v6l-3.83,4.45C3.73,71.11,4.2,72,5,72h3v4v8v8v8v8v8c-2.21,0-4,1.79-4,4v4h120v-4c0-2.21-1.79-4-4-4v-8v-8v-8v-8v-8v-4h3 c0.8,0,1.28-0.89,0.83-1.55L120,66v-6v-8v-8v-8v-8v-6h2c1.1,0,2-0.9,2-2L109.17,5.17C108.42,4.42,107.4,4,106.34,4L106.34,4z" style="fill:#424242;"/>
  </g>
</svg>
